X:1
T:Title
%%score { ( 1 3 ) | ( 2 4 ) }
L:1/8
M:4/4
K:Bb
V:1 treble nm="Grand Piano"
V:3 treble 
V:2 bass 
V:4 bass 
V:1
 z4 z2[Q:1/4=108] [DF]>[DF] | [DB]2 [EB]2 [FB]2 [Fd]>[Fd] | d4 c2 F>F | c2 c2 c2 d2 | %4
[M:3/4] [DB]6 |[M:1/4] [DF]>[DF] |[M:4/4] [EG]2 [EG]2 [FB]2 [Fc]2 | [Fd]4 [DB]2 [Fd]>[Fd] | %8
 [Fc]3 [A,F] [CFA]2 [B,=EG]2 |[M:3/4] [A,F]6 |[M:1/4] [A,F]>[A,EF] | %11
[M:4/4] [B,DB]2 [B,EB]2 [B,FB]2 [Fd]>[Fd] | [Fd]4 z4 | c2 c2 c2 e>e |[M:3/4] e4 z2 |[M:1/4] d>d | %16
[M:4/4] d2 c2 B2 [FB]>[FB] | [Gc]2 [Gd]2 [Ge]2 [FGd]>[EGc] | [DFB]3 [EFc] [DFB]2 .[CFA]2 | %19
[M:3/4] [B,DB]6 |] %20
V:2
 z4 z2 [B,,B,]>[B,,B,] | [B,,F,]2 [C,F,]2 [D,A,]2 [B,,B,]>[B,,B,] | %2
 [F,B,F]4 [F,A,F]2 [F,A,]>[F,A,] | [F,A,F]2 [G,B,=E]2 [A,CF]2[K:bass] [F,A,_E]2 |[M:3/4] [B,,B,]6 | %5
[M:1/4] [B,,B,]>[B,,B,] |[M:4/4] [E,B,]2 [E,B,]2 [D,B,]2 [C,A,]2 | %7
 [B,,B,]4 [B,,B,]2 [B,,B,]>[B,,B,] | [C,A,]3 D, C,2 C,2 |[M:3/4] F,6 |[M:1/4] F,>F, | %11
[M:4/4] B,,2 C,2 D,2 [B,,B,]>[B,,B,] | [F,B,]2 F,2 [F,A,F]2 [F,A,]>[F,A,] | %13
 [F,A,F]2 [G,B,=E]2 [A,CF]2 [F,CF]>[F,CF] |[M:3/4][K:bass] F4[K:treble] z2 |[M:1/4] [B,F]>[B,F] | %16
[M:4/4] [B,F]2[K:bass] [F,A,E]2 [G,B,D]2 [D,B,]>[D,B,] | [E,B,]2 [D,=B,]2 [C,C]2 D,>E, | %18
 F,3 F, F,2 z E |[M:3/4] B,,6 |] %20
V:3
 x8 | x8 | x8 | x8 |[M:3/4] x6 |[M:1/4] x2 |[M:4/4] x8 | x8 | x8 |[M:3/4] x6 |[M:1/4] x2 | %11
[M:4/4] x8 | z2 B,2 c2 F>F | x8 |[M:3/4] z2 C2 d2 |[M:1/4] x2 |[M:4/4] x8 | x8 | x8 |[M:3/4] x6 |] %20
V:4
 x8 | x8 | x8 | x6[K:bass] x2 |[M:3/4] x6 |[M:1/4] x2 |[M:4/4] x8 | x8 | x8 |[M:3/4] x6 | %10
[M:1/4] x2 |[M:4/4] x8 | x8 | x8 |[M:3/4][K:bass] [F,C]2 F,2[K:treble] [B,F]2 |[M:1/4] x2 | %16
[M:4/4] x2[K:bass] x6 | x8 | z4 z2 F,2 |[M:3/4] x6 |] %20

